P3
8 8
255
255 255 255  255 255 255  255 255 255  255 255 255  255 255 255  255 255 255  255 255 255  255 255 255
255 255 255  255 255 255  255 255 255  255 255 255  255 255 255  255 255 255  255 255 255  255 255 255
255 255 255  255 255 255  255 255 255  220 60 80      220 60 80      255 255 255  255 255 255  255 255 255
255 255 255  255 255 255  220 60 80      245 90 105    245 90 105    220 60 80      255 255 255  255 255 255
255 255 255  255 255 255  220 60 80      255 255 255   245 90 105    220 60 80      255 255 255  255 255 255
255 255 255  255 255 255  220 60 80      245 90 105    180 35 60      220 60 80      255 255 255  255 255 255
255 255 255  255 255 255  255 255 255   220 60 80      220 60 80      255 255 255   255 255 255  255 255 255
255 255 255  255 255 255  255 255 255   90 55 70       90 55 70       255 255 255   255 255 255  255 255 255
